modules/linearicons/icons/arrow-down-circle.svg

<?xml version="1.0" encoding="utf-8"?>
<!-- Generated by IcoMoon.io -->
<!DOCTYPE svg PUBLIC "-//W3C//DTD SVG 1.1//EN" "http://www.w3.org/Graphics/SVG/1.1/DTD/svg11.dtd">
<svg version="1.1" xmlns="http://www.w3.org/2000/svg" xmlns:xlink="http://www.w3.org/1999/xlink" width="20" height="20" viewBox="0 0 20 20">
<path fill="#000000" d="M16.218 17.218c1.794-1.794 2.782-4.18 2.782-6.718s-0.988-4.923-2.782-6.717-4.18-2.782-6.718-2.782-4.923 0.988-6.718 2.782-2.782 4.18-2.782 6.717 0.988 4.923 2.782 6.718 4.18 2.782 6.718 2.782 4.923-0.988 6.718-2.782zM1 10.5c0-4.687 3.813-8.5 8.5-8.5s8.5 3.813 8.5 8.5c0 4.687-3.813 8.5-8.5 8.5s-8.5-3.813-8.5-8.5z"></path>
<path fill="#000000" d="M9.853 16.353l4-4c0.195-0.195 0.195-0.512 0-0.707s-0.512-0.195-0.707 0l-3.146 3.147v-10.293c0-0.276-0.224-0.5-0.5-0.5s-0.5 0.224-0.5 0.5v10.293l-3.147-3.146c-0.195-0.195-0.512-0.195-0.707 0-0.098 0.098-0.146 0.226-0.146 0.353s0.049 0.256 0.147 0.353l4 4c0.195 0.195 0.512 0.195 0.707 0z"></path>
</svg>

<svg xmlns="http://www.w3.org/2000/svg" width="20" height="20" viewBox="0 0 20 20"><path d="M16.218 17.218C18.012 15.424 19 13.038 19 10.5s-.988-4.923-2.782-6.717-4.18-2.782-6.718-2.782-4.923.988-6.718 2.782S0 7.963 0 10.5s.988 4.923 2.782 6.718S6.962 20 9.5 20s4.923-.988 6.718-2.782zM1 10.5C1 5.813 4.813 2 9.5 2S18 5.813 18 10.5c0 4.687-3.813 8.5-8.5 8.5S1 15.187 1 10.5z"/><path d="M9.853 16.353l4-4a.5.5 0 0 0-.707-.707L10 14.793V4.5a.5.5 0 0 0-1 0v10.293l-3.147-3.146a.5.5 0 0 0-.706.706l4 4a.5.5 0 0 0 .707 0z"/></svg>
